X: 1134
T: Lovely Nancy
S: Henry Livingstons manuscript copybook, late 18th century
M: 3/4
L: 1/8
R: air / country dance 
K: G Major
|: B>A | 
GD GD GB | AD AD Ac | BG dB gB | B2 A2 B>A | 
GD GD GB | AD AD Ac | Bg dB cA | G4 :|
|: B>c | 
dB dB ge | e2 d2 B>c | dB dB gB | B2 A2 B>A | 
FD GD GB | AD AD Ac | Bg dB cA | G4 :|
